X:1
T:Title
%%score { ( 1 3 ) | ( 2 4 ) }
L:1/8
M:3/4
K:Ab
V:1 treble nm="Grand Piano"
V:3 treble 
V:2 bass 
V:4 bass 
V:1
 z2 z2[Q:1/4=100] [CE]2 | [CE]2 [Ec]2 [DG]2 | B2 z2 z2 | F2 z2 z2 | [A,CE]4 [A,CE]2 | %5
 [G,E]2 d2 =A2 | c2 B2 F2 | A2 [B,G]2 [=DA]2 |[M:2/4] B4 |[M:1/4] E2 |[M:3/4] [Ec]2 [Fd]2 [EA]2 | %11
 c2 B2 F2 | B2 c2 G2 | B2 z2 [A,DF]2 | [CE]2 A2 c2 | e2 d2 c2 | B2 F2 [B,DG]2 | %17
[M:5/8] [A,CA]-[A,CA]- [A,CA]3 |[M:4/4] z2 z B- B4 | z2 z A- A4[K:bass] | z2 z d- d4 | %21
[M:5/8] z z2 c2- |[M:3/8] c3 | EFG |[M:4/4] A6[K:bass][K:treble] z2 | %25
[M:17/16] d/-d/-d/-d/-d/-d/-d/-d-<d z/ z/ z/ z/ z |[M:4/4] [Ae]3 [Gd] [EGc]2 [DGB]2 | %27
[M:5/8] [CEA]-[CEA]- [CEA]3 |] %28
V:2
 z2 z2 [A,,A,]2 | [A,,A,]4 [A,,E,]2 | z2 A2 A,,2 | z2 E2 A,,2 | A,,4 A,,2 | z2 B,2 [E,_G,E]2 | %6
 [E,G,E]4 [F,A,D]2 | F,2 z2 z2 |[M:2/4] [G,B,D]4 |[M:1/4] [E,G,]2 |[M:3/4] [A,,A,]4 [C,A,]2 | %11
 [D,A,]4 [D,A,D]2 | [B,,A,]4 [E,D]2 | z2 A2 A,,2 | z2[K:treble] [CE]2 [A,EA]2 | %15
 [A,E]2 [G,B,]2 [A,E]2 | [D,D]2- [D,B,D]2 E,2 |[M:5/8] A,,-A,,- A,,3 |[M:4/4] z2 z D- D4 | %19
 z2 z C- C4 | z2 z G- G4[K:bass] |[M:5/8][K:treble] z z2[K:bass] _E2- |[M:3/8] E3 | z =D_D | %24
[M:4/4] C6[K:treble] z2 |[M:17/16] F/-F/-F/-F/-F/-F/-F/-F-<F[K:bass] z/ z/ z/ z/ z | %26
[M:4/4] [E,C]3 [E,B,] E,2 E,2 |[M:5/8] A,,-A,,- A,,3 |] %28
V:3
 x6 | x6 | C4 [E,C]2 | [A,C]4 [A,_C=D]2 | x6 | D4 z2 | x6 | =D4 z2 |[M:2/4] x4 |[M:1/4] x2 | %10
[M:3/4] x6 | F4 z2 | =D4 z2 | C4 z2 | x6 | x6 | x6 |[M:5/8] x5 |[M:4/4] AG .A2 G,G,G,G, | %19
 GF .G2 E,[K:bass]E,E,A, | cB .c2 B,B,B,B, |[M:5/8] BAB z A, |[M:3/8] A,A,A, | x3 | %24
[M:4/4] z[K:bass] E,E,E, A,[K:treble]ABc |[M:17/16] z A,A,A,A,3/2[DAd][Ae][Af] |[M:4/4] x8 | %27
[M:5/8] x5 |] %28
V:4
 x6 | x6 | [A,,E,]4 z2 | A,,4 z2 | x6 | E,4 z2 | x6 | B,,4 [B,,A,]2 |[M:2/4] x4 |[M:1/4] x2 | %10
[M:3/4] x6 | x6 | x6 | [B,,E,]4 z2 | A,4[K:treble] z2 | x6 | F,2 z2 z2 |[M:5/8] x5 | %18
[M:4/4] CB, .C2 E,E,E,E, | DD .D2 A,,A,,A,,[A,,E,] | ED .E2 E,[K:bass]E,E,E, | %21
[M:5/8][K:treble] GF[K:bass]=E z A,, |[M:3/8] C,E, z | x3 | %24
[M:4/4] z A,,A,,A,, .[A,,E,]2[K:treble] G_G |[M:17/16] z D,D,D,D,3/2[K:bass]F,[E,C][=D,_C] | %26
[M:4/4] x8 |[M:5/8] x5 |] %28

